X:1
T:Title
%%score { ( 1 4 ) | ( 2 3 ) }
L:1/8
M:4/4
K:Ab
V:1 treble nm="Grand Piano"
V:4 treble 
V:2 bass 
V:3 bass 
V:1
 z4 z2[Q:1/4=100] [CA]>[DB] | [Ec]2 [Ec]>[Fd] [Ec]2 [Ec]>[Ed] | e3 d c2 B>c | d2 d>d d2 e>B | %4
 [Ec]6 [CA]>[DB] | [Ec]2 [Ec]>[Fd] [Ec]2 [Ec]>[Ed] | e3 d c2 B>c | d2 d>d d2 e>G |[M:3/4] [CA]6 | %9
[M:1/4] [Ec]>[CA] |[M:4/4] [EB]6 z2 | [Ec]6 c>c | B2 B>[Ec] BA [B,=DG]>[A,DF] | E6[K:treble] z2 | %14
 [Ec]4 z4 |[M:9/8] .[Fd]6 z3 |[M:4/4] E2 A>B cB F>G |[M:3/4] [CA]6 |] %18
V:2
 z4 z2 [A,,A,]>[A,,A,] | [A,,A,]2 [A,,A,]>[A,,A,] [A,,A,]2 [A,,A,]>[A,,B,] | C4 z2 [G,E]2 | %3
 [E,B,E]2 [E,B,E]>[E,B,E] [E,B,E]2 [E,G,E]>[E,G,E] | [A,,A,]6 [A,,A,]>[A,,A,] | %5
 [A,,A,]2 [A,,A,]>[A,,A,] [A,,A,]2 [A,,A,]>[A,,A,] | C4 z4 | %7
 [E,B,E]2 [E,B,E]>[E,B,E] [E,B,E]2 [E,G,E]>[E,B,D] |[M:3/4] [A,,A,]6 |[M:1/4] [A,,A,]>[A,,A,] | %10
[M:4/4] [E,G,]2 E,>E, E,2 [E,B,E]>[E,G,E] | A,2 A,>A, A,2 [A,E]>[A,E] | z4 .G,2 z2 | %13
 E,2 E,>E, E,D, C,>[B,,G,] | [A,,A,]2 A,,>A,, [A,,A,]2 [E,G,E]>[A,E] | %15
[M:9/8] [D,A,]2 D,- D,/D,/ [D,A,D]2- [D,A,D][D,F,D]>[D,A,D] | %16
[M:4/4] [E,A,C]2 [E,A,C]>[E,A,D] [A,E][G,D] [E,B,D]>[E,B,D] |[M:3/4] [A,,A,]6 |] %18
V:3
 x8 | x8 | [A,E]3- [A,B,E] [A,E]2 E,->[E,A,E] | x8 | x8 | x8 | %6
 [A,E]3- [A,B,E] [A,E]2 [E,G,E]>[E,A,E] | x8 |[M:3/4] x6 |[M:1/4] x2 |[M:4/4] x8 | x8 | %12
 [E,G,E]2 [E,G,E]>[A,,A,] B,,-[B,,F,] B,,>B,, | x8 | x8 |[M:9/8] x9 |[M:4/4] z4 E,2 z2 | %17
[M:3/4] x6 |] %18
V:4
 x8 | x8 | x8 | x8 | x8 | x8 | x8 | x8 |[M:3/4] x6 |[M:1/4] x2 |[M:4/4] z2 G,>G, G,2 d>B | x8 | %12
 z4 =D2 z2 | G,2 G,>G, G,B,[K:treble] [A,EA]>[EB] | z2 A,>A, [CA]2 B>c | %15
[M:9/8] z2 A,- A,/A,/ F2- FA>F |[M:4/4] x8 |[M:3/4] x6 |] %18

